svgs/duotone/file-pen.svg

<svg xmlns="http://www.w3.org/2000/svg" viewBox="0 0 576 512"><!--! Font Awesome Pro 6.4.0 by @fontawesome - https://fontawesome.com License - https://fontawesome.com/license (Commercial License) Copyright 2023 Fonticons, Inc. --><defs><style>.fa-secondary{opacity:.4}</style></defs><path class="fa-primary" d="M384 160H256c-17.7 0-32-14.3-32-32V0L384 160zm165.9 75.7l14.4 14.4c15.6 15.6 15.6 40.9 0 56.6l-29.4 29.5-71-71 29.4-29.4c15.6-15.6 40.9-15.6 56.6 0zM311.9 417.1L441.2 287.8l71 71L382.9 488.1c-4.1 4.1-9.2 7-14.9 8.4l-60.2 15c-5.5 1.4-11.2-.2-15.2-4.2s-5.6-9.7-4.2-15.2l15-60.2c1.4-5.6 4.3-10.8 8.4-14.9z"/><path class="fa-secondary" d="M0 64C0 28.7 28.7 0 64 0H224V128c0 17.7 14.3 32 32 32H384V299.5l-94.7 94.7c-8.2 8.2-14 18.5-16.8 29.7l-15 60.1c-2.3 9.4-1.8 19.1 1.4 27.9H64c-35.3 0-64-28.7-64-64V64z"/></svg>

<svg xmlns="http://www.w3.org/2000/svg" viewBox="0 0 576 512"><!--! Font Awesome Pro 6.3.0 by @fontawesome - https://fontawesome.com License - https://fontawesome.com/license (Commercial License) Copyright 2023 Fonticons, Inc. --><defs><style>.fa-secondary{opacity:.4}</style></defs><path class="fa-primary" d="M224 160V0L384 160H224zM564.3 250.1C579.9 265.7 579.9 291.1 564.3 306.7L534.8 336.1L463.9 265.2L493.3 235.7C508.9 220.1 534.2 220.1 549.9 235.7L564.3 250.1zM311.9 417.1L441.2 287.8L512.2 358.8L382.9 488.1C378.8 492.2 373.7 495.1 368.1 496.5L307.9 511.5C302.4 512.9 296.7 511.3 292.7 507.3C288.7 503.3 287.1 497.6 288.5 492.1L303.5 431.9C304.9 426.3 307.8 421.2 311.9 417.1V417.1z"/><path class="fa-secondary" d="M0 64C0 28.65 28.65 0 64 0H224V160H384V299.5L289.3 394.3C281.1 402.5 275.3 412.7 272.5 423.1L257.4 484.1C255.1 493.5 255.7 503.2 258.8 512H64C28.65 512 0 483.3 0 448V64z"/></svg>
